X:7
T:Maggie Pickin's
D:Dan Brouder: The Lark's Air (2011)
Z:Gwenaël Lambrouin, 2016-11-15
I:Morceau en Ab sur le disque
R:fling
M:2/2
Q:1/2=80
K:G
|: GEDE GAB2 | (3cBA (3BAG AGEF | GEDE GABd |1 (3efg dB ABG2 :|2 (3efg dB ABGB |
|: (3cBc ec (3BAB dB | AcBG AGE2 | GEDE GABd | (3efg dB ABG2 :|

